X:1
T:Åsas Vals
C:Patrik Månsson
R:Vals
Z:Patrik Månsson, 2/7 2008
O:Röstånga, Skåne
M:3/4
L:1/8
K:D
N:Tillägnad Åsa Andersson
|: "D"A,2 D2 F2 | BA ^GA F2 | A,2 D2 F2 | "A7"BA GA E2 | A,2 C2 E2 | GE GE C2 | A,2 F3 E | "D"D4 z2 :|
|: "G"B,2 B,3 D | G4 z2 | "D"A,2 A,3 D | F4 z2 | "A7"A,2 A,3 C |[1 E4 A,2 | "D"DC DF Ad | fe dA FD :|[2 E4 F2 | "D"D6 | z6|]

